X:1
T:Many Thoughts Stir My Heart
T:Many Thoughts Stir My Heart
T: “Mother Machree,” arranged by Norman Bearcroft
T:Albert William Thomas Orsborn, 1916
T:Public Domain Courtesy of the Cyber Hymnal™
T:Public Domain Courtesy of the Cyber Hymnal™
C:“Mother Machree,” arranged by Norman Bearcroft
Z:Public Domain
Z:Courtesy of the Cyber Hymnal™
%%score ( 1 2 ) ( 3 4 )
L:1/8
Q:1/4=118
M:3/4
K:D
V:1 treble 
V:2 treble 
V:3 bass 
V:4 bass 
V:1
 [DF][EG] | [FA]2 [FB]2 [Fc]2 | [Fd]4 [Fc][Fd] | [GB]2 [FA]2 [DF]2 | [FA]4 [DF][CG] | %5
w: 1.~Ma- ny|thoughts stir my|heart as I|pon- der a-|lone; Ma- ny|
w: 2.~’Tis the|end of my|sin and the|source of all|grace; ’Tis the|
w: 3.~For the|sake of the|Christ and the|love of His|cross I have|
 [DA]2 [D^G]2 [DA]2 | [DB]2 [DA]2 [EG]2 | [DF]2 [DE]2 [B,D]2 | [CE]4 [DF][EG] | [FA]2 [FB]2 [Fc]2 | %10
w: plac- es at-|tract me with|charms all their|own; But the|thought of all|
w: word of God’s|love to a|pro- di- gal|race; ’Tis the|great- est, the|
w: yield- ed my|all and not|reck- oned it|loss; There’s a|place in my|
 [Fd]4 [Fc][Fd] | [Ge]2 [Gd]2 [GB]2 | [Gd]4 [Fd]2 | [^Ed]2 [Ec]2 [Ed]2 | %14
w: thoughts is of|Christ cru- ci-|fied, The|place of all|
w: grand- est gift|God could im-|part, Sur-|pass- ing my|
w: heart which the|Sav- ior must|fill; No|o- ther can|
 [^EB]2 !fermata![FA]2 [DF]2 | [DF]2 [CE]2 [B,D]2 | [CA]6 || !fermata![FA]4"^Refrain" [EG]2 | %18
w: plac- es, the|hill where He|died.||
w: rea- son, but|win- ning my|heart.|O the|
w: take it, and|none ev- er|will.||
 [DF]2 [D^E]2 [DF]2 | [CG]2 [CF]2 [CG]2 | A2 [^GB]2 [=Gc]2 | [Fd]4 [FB][Fc] | [^Ed]2 [Ec]2 [Ed]2 | %23
w: |||||
w: charm of the|cross! How I|love to be|there! With the|love that shines|
w: |||||
 [FB] [FA]3 [DF]2 | [DF]2 [CE]2 [B,D]2 | [CE]4 E2 | [DF]2 [D^E]2 [DF]2 | [CG]2 [CF]2 [CG]2 | %28
w: |||||
w: from it, what|love can com-|pare? The|seal of my|ran- som in|
w: |||||
 [DA]2 [DB]2 [EFc]2 | [DFd]2 !fermata![cf]2 [ce]2 | [ce]2 d2 [GB]2 | [EA][DF]- [DF]4 | %32
w: ||||
w: Cal- va- ry|I see, All|my sin, O|my Sav- *|
w: ||||
 [CF]2 [B,D]2 [B,D]2 | [A,D]2 [Fd]4- | !fermata![Fd]4 |] %35
w: |||
w: ior, laid up-|on Thee!||
w: |||
V:2
 x2 | x6 | x6 | x6 | x6 | x6 | x6 | x6 | x6 | x6 | x6 | x6 | x6 | x6 | x6 | x6 | x6 || x6 | x6 | %19
 x6 | A2 x4 | x6 | x6 | x6 | x6 | x4 E2 | x6 | x6 | x6 | x6 | x2 d2 x2 | x6 | x6 | x6 | x4 |] %35
V:3
 [D,A,]2 | [D,D]2 D2 [CE]2 | [B,D]4 ^A,B, | [G,D]2 [D,D]2 [D,A,]2 | [D,D]4 [D,A,][E,A,] | %5
 [F,A,]2 [^E,B,]2 [F,A,]2 | G,2 [F,A,]2 [C,A,]2 | [D,A,]2 [B,,^G,]2 [E,G,]2 | [A,,A,]4 [D,A,]2 | %9
 [D,D]2 D2 [^A,E]2 | [B,D]4 [^A,E][B,D] | [G,B,]4 [G,D]2 | [G,B,]4 [G,B,]2 | B,2 C2 [=G,B,]2 | %14
 [^G,D]2 [A,D]2 [B,,A,]2 | [E,^G,]4 [E,G,]2 | [E,A,]6 || !fermata![A,,C]4 [A,C]2 | %18
 A,2 ^G,2 [D,A,]2 | A,4 [E,A,]2 | [F,D]2 [E,D]2 [E,A,]2 | [D,A,D]4 [B,D][A,C] | %22
 [^G,B,]2 [G,C]2 [G,B,]2 | [A,D]4 [B,,A,]2 | [E,^G,]4 [E,G,]2 | [A,,A,]4 [C,A,]2 | %26
 [D,A,]2 [D,^G,]2 [D,A,]2 | [E,A,]2 [^D,A,]2 [E,A,]2 | [F,A,]2 G,2 [F,^A,]2 | B,2 [^A,F]2 [A,G]2 | %30
 [^A,G]2 [B,F]2 [G,D]2 | [C,A,][D,A,]- [D,A,]4 | [^A,,F,]2 [B,,F,]2 D,E, | F,4- [F,A,]2- | %34
 [D,,D,F,A,]4 |] %35
V:4
 x2 | x2 D2 x2 | x4 ^A,B, | x6 | x6 | x6 | G,2 x4 | x6 | x6 | x2 D2 x2 | x6 | x6 | x6 | ^G,4 x2 | %14
 x6 | x6 | x6 || x6 | D,4 x2 | E,2 ^D,2 x2 | x6 | x6 | x6 | x6 | x6 | x6 | x6 | x6 | x2 G,2 x2 | %29
 B,2 x4 | x6 | x6 | x4 G,,2 | [D,,-D,]6 | x4 |] %35

